X:172
T:Always Welcome
M:C|
L:1/8
K:G  %1 sharp
B2|D2 DE G2 GA|BAGA Bd d2|e2 ef gfge|dBAB GE E2|\
   D2 DE G2 GA|BAGA Bd d2|e2 ef gfge|dBAB G2:||\
B2|G2 GB dB B2|dBgB dB B2|A2 AB edef|gfge dcBA|\
   G2 GB dB B2|dBgB dB B2|e2 ef gfge|dB AB G2:||
% <A name="D1X173">
